src/activities/babymatch/resource/images/light.svg

<?xml version="1.0" encoding="UTF-8" standalone="no"?>
<svg
   xmlns:dc="http://purl.org/dc/elements/1.1/"
   xmlns:cc="http://creativecommons.org/ns#"
   xmlns:rdf="http://www.w3.org/1999/02/22-rdf-syntax-ns#"
   xmlns:svg="http://www.w3.org/2000/svg"
   xmlns="http://www.w3.org/2000/svg"
   version="1.1"
   id="Layer_1"
   x="0px"
   y="0px"
   viewBox="0 0 99.999998 99.999998"
   enable-background="new 0 0 3508 2480"
   xml:space="preserve"
   width="100"
   height="100"><metadata
     id="metadata4083">
    <rdf:RDF>
      <cc:Work
   rdf:about="">
        <dc:format>image/svg+xml</dc:format>
        <dc:type
   rdf:resource="http://purl.org/dc/dcmitype/StillImage" />
        <dc:title></dc:title>
        <dc:date>2020</dc:date>
        <dc:creator>
          <cc:Agent>
            <dc:title>Timothée Giet</dc:title>
          </cc:Agent>
        </dc:creator>
        <cc:license
   rdf:resource="http://creativecommons.org/licenses/by-sa/4.0/" />
      </cc:Work>
      
    <cc:License
   rdf:about="http://creativecommons.org/licenses/by-sa/4.0/"><cc:permits
     rdf:resource="http://creativecommons.org/ns#Reproduction" /><cc:permits
     rdf:resource="http://creativecommons.org/ns#Distribution" /><cc:requires
     rdf:resource="http://creativecommons.org/ns#Notice" /><cc:requires
     rdf:resource="http://creativecommons.org/ns#Attribution" /><cc:permits
     rdf:resource="http://creativecommons.org/ns#DerivativeWorks" /><cc:requires
     rdf:resource="http://creativecommons.org/ns#ShareAlike" /></cc:License></rdf:RDF>
        </metadata><defs
     id="defs4081" /><g
     transform="matrix(0.12241853,-0.12241853,0.12241853,0.12241853,2.5718369,38.983279)"
     id="g12555"><circle
       style="opacity:1;vector-effect:none;fill:#c5c5c5;fill-opacity:1;stroke:#484848;stroke-width:8.71005917;stroke-linecap:butt;stroke-linejoin:miter;stroke-miterlimit:4;stroke-dasharray:none;stroke-dashoffset:0;stroke-opacity:1"
       id="path871"
       cx="273.95178"
       cy="298.8056"
       r="34.840237"
       transform="rotate(45)" /><rect
       style="opacity:1;vector-effect:none;fill:#6f6f6f;fill-opacity:1;stroke:#484848;stroke-width:8.71005917;stroke-linecap:butt;stroke-linejoin:miter;stroke-miterlimit:4;stroke-dasharray:none;stroke-dashoffset:0;stroke-opacity:1"
       id="rect869"
       width="104.5207"
       height="52.260353"
       x="221.69144"
       y="246.54494"
       ry="21.77515"
       transform="rotate(45)" /><path
       style="opacity:1;vector-effect:none;fill:#efead0;fill-opacity:0.98734179;stroke:#d0b22f;stroke-width:8.71006107;stroke-linecap:butt;stroke-linejoin:miter;stroke-miterlimit:4;stroke-dasharray:none;stroke-dashoffset:0;stroke-opacity:0.98823529"
       d="M 339.64414,269.50411 C 278.0548,331.09348 136.39911,374.20607 74.809679,312.61664 13.220265,251.02722 56.695478,109.00906 117.92222,47.782211 c 61.2268,-61.226795 160.4951,-61.226828 221.72191,-1.2e-5 61.22682,61.226811 61.22678,160.495111 10e-6,221.721911 z"
       id="path863" /><path
       style="opacity:1;vector-effect:none;fill:#c5c5c5;fill-opacity:1;stroke:none;stroke-width:8.71006107;stroke-linecap:butt;stroke-linejoin:miter;stroke-miterlimit:4;stroke-dasharray:none;stroke-dashoffset:0;stroke-opacity:1"
       d="M 47.094401,223.31201 164.11431,340.33192 c 8.53014,8.53014 10.47404,24.80949 9e-5,30.79462 l -86.225286,49.27163 c -10.473966,5.98515 -22.264479,8.53006 -30.794617,-8e-5 l -80.066256,-80.06626 c -8.530138,-8.53013 -5.985225,-20.32065 -7.9e-5,-30.79461 l 49.271622,-86.22527 c 5.98513,-10.47396 22.26448,-8.53007 30.794617,6e-5 z"
       id="rect866" /><path
       style="fill:#838383;fill-opacity:1;stroke:none;stroke-width:4.35502958px;stroke-linecap:butt;stroke-linejoin:miter;stroke-opacity:1"
       d="M 171.07316,363.25358 7.6205842,240.66418 -1.0524009,255.72464 155.10438,372.83485 Z M 139.13571,382.41599 -9.7194359,270.77918 -18.392489,285.82769 123.16694,391.99727 Z m -31.93753,19.16258 -134.257694,-100.69635 -8.66705,15.05456 126.955956,95.22305 z"
       id="path877" /><path
       style="opacity:1;vector-effect:none;fill:none;fill-opacity:1;stroke:#484848;stroke-width:8.71006203;stroke-linecap:butt;stroke-linejoin:miter;stroke-miterlimit:4;stroke-dasharray:none;stroke-dashoffset:0;stroke-opacity:1"
       d="M 47.094401,223.31201 164.11431,340.33192 c 8.53014,8.53014 10.47404,24.80949 9e-5,30.79462 l -86.225286,49.27163 c -10.473966,5.98515 -22.264479,8.53006 -30.794617,-8e-5 l -80.066256,-80.06626 c -8.530138,-8.53013 -5.985225,-20.32065 -7.9e-5,-30.79461 l 49.271622,-86.22527 c 5.98513,-10.47396 22.26448,-8.53007 30.794617,6e-5 z"
       id="rect866-5" /></g></svg>

<svg xmlns:dc="http://purl.org/dc/elements/1.1/" xmlns:cc="http://creativecommons.org/ns#" xmlns:rdf="http://www.w3.org/1999/02/22-rdf-syntax-ns#" xmlns="http://www.w3.org/2000/svg" x="0px" y="0px" viewBox="0 0 99.999998 99.999998" xml:space="preserve" width="100" height="100"><metadata><rdf:RDF><cc:Work><dc:format>image/svg+xml</dc:format><dc:type rdf:resource="http://purl.org/dc/dcmitype/StillImage"/><dc:title/><dc:date>2020</dc:date><dc:creator><cc:Agent><dc:title>Timothée Giet</dc:title></cc:Agent></dc:creator><cc:license rdf:resource="http://creativecommons.org/licenses/by-sa/4.0/"/></cc:Work><cc:License rdf:about="http://creativecommons.org/licenses/by-sa/4.0/"><cc:permits rdf:resource="http://creativecommons.org/ns#Reproduction"/><cc:permits rdf:resource="http://creativecommons.org/ns#Distribution"/><cc:requires rdf:resource="http://creativecommons.org/ns#Notice"/><cc:requires rdf:resource="http://creativecommons.org/ns#Attribution"/><cc:permits rdf:resource="http://creativecommons.org/ns#DerivativeWorks"/><cc:requires rdf:resource="http://creativecommons.org/ns#ShareAlike"/></cc:License></rdf:RDF></metadata><g transform="scale(.17313) rotate(-45 279.235 94.655)"><circle style="opacity:1;vector-effect:none;fill:#c5c5c5;fill-opacity:1;stroke:#484848;stroke-width:8.71005917;stroke-linecap:butt;stroke-linejoin:miter;stroke-miterlimit:4;stroke-dasharray:none;stroke-dashoffset:0;stroke-opacity:1" cx="273.95178" cy="298.8056" r="34.840237" transform="rotate(45)"/><rect style="opacity:1;vector-effect:none;fill:#6f6f6f;fill-opacity:1;stroke:#484848;stroke-width:8.71005917;stroke-linecap:butt;stroke-linejoin:miter;stroke-miterlimit:4;stroke-dasharray:none;stroke-dashoffset:0;stroke-opacity:1" width="104.5207" height="52.260353" x="221.69144" y="246.54494" ry="21.77515" transform="rotate(45)"/><path style="opacity:1;vector-effect:none;fill:#efead0;fill-opacity:.98734179;stroke:#d0b22f;stroke-width:8.71006107;stroke-linecap:butt;stroke-linejoin:miter;stroke-miterlimit:4;stroke-dasharray:none;stroke-dashoffset:0;stroke-opacity:.98823529" d="M339.644 269.504c-61.59 61.59-203.245 104.702-264.834 43.113-61.59-61.59-18.115-203.608 43.112-264.835 61.227-61.227 160.495-61.227 221.722 0 61.227 61.227 61.227 160.495 0 221.722z"/><path style="opacity:1;vector-effect:none;fill:#c5c5c5;fill-opacity:1;stroke:none;stroke-width:8.71006107;stroke-linecap:butt;stroke-linejoin:miter;stroke-miterlimit:4;stroke-dasharray:none;stroke-dashoffset:0;stroke-opacity:1" d="m47.094 223.312 117.02 117.02c8.53 8.53 10.474 24.81 0 30.795L77.89 420.398c-10.474 5.985-22.264 8.53-30.795 0l-80.066-80.066c-8.53-8.53-5.985-20.32 0-30.795L16.3 223.312c5.985-10.474 22.264-8.53 30.794 0z"/><path style="fill:#838383;fill-opacity:1;stroke:none;stroke-width:4.35502958px;stroke-linecap:butt;stroke-linejoin:miter;stroke-opacity:1" d="M171.073 363.254 7.621 240.664l-8.673 15.06 156.156 117.11zm-31.937 19.162L-9.72 270.779l-8.673 15.049 141.559 106.17zm-31.938 19.163L-27.06 300.882l-8.667 15.055L91.23 411.16z"/><path style="opacity:1;vector-effect:none;fill:none;fill-opacity:1;stroke:#484848;stroke-width:8.71006203;stroke-linecap:butt;stroke-linejoin:miter;stroke-miterlimit:4;stroke-dasharray:none;stroke-dashoffset:0;stroke-opacity:1" d="m47.094 223.312 117.02 117.02c8.53 8.53 10.474 24.81 0 30.795L77.89 420.398c-10.474 5.985-22.264 8.53-30.795 0l-80.066-80.066c-8.53-8.53-5.985-20.32 0-30.795L16.3 223.312c5.985-10.474 22.264-8.53 30.794 0z"/></g></svg>
